www/assets/icons/spoke.svg

<svg xmlns="http://www.w3.org/2000/svg" width="24" height="24" viewBox="0 0 24 24" fill='currentColor'><path d="M16 7c0 2.21-1.79 4-4 4S8 9.21 8 7s1.79-4 4-4 4 1.79 4 4m-9 6c-2.21 0-4 1.79-4 4s1.79 4 4 4 4-1.79 4-4-1.79-4-4-4m10 0c-2.21 0-4 1.79-4 4s1.79 4 4 4 4-1.79 4-4-1.79-4-4-4"/></svg>

<svg width="24" height="24" viewBox="0 0 24 24" xmlns="http://www.w3.org/2000/svg" fill='currentColor'><path d="M16 7C16 9.21 14.21 11 12 11C9.79 11 8 9.21 8 7C8 4.79 9.79 3 12 3C14.21 3 16 4.79 16 7ZM7 13C4.79 13 3 14.79 3 17C3 19.21 4.79 21 7 21C9.21 21 11 19.21 11 17C11 14.79 9.21 13 7 13ZM17 13C14.79 13 13 14.79 13 17C13 19.21 14.79 21 17 21C19.21 21 21 19.21 21 17C21 14.79 19.21 13 17 13Z"/></svg>
